X: 13279
T: Five Servants, The
R: polka
M: 2/4
K: Gmajor
A|B>A BG|c>B cA|d>e fg|a/g/f/a/ g>e|
de/f/ gf/e/|dc B>d|cA BA|G2 G:|
g/a/|bg bg|bg bg|aa/g/ aa/g/|a/b/a/g/ e/f/g/e/|
de/f/ gf/e/|dc B>d|cA BA|G2 G:|

